;FLAVOR:Marlin
;TIME:22634
;Filament used: 16.5058m
;Layer height: 0.2
;MINX:106.974
;MINY:106.974
;MINZ:0.2
;MAXX:193.026
;MAXY:193.026
;MAXZ:25
;Generated with Creality Slicer 4.8.2-218
M140 S60
M105
M190 S60
M104 S200
M105
M109 S200
M82 ;absolute extrusion mode

G28 ;Home

G92 E0 ;Reset Extruder
G1 Z2.0 F3000 ;Move Z Axis up
G1 X10.1 Y20 Z0.28 F5000.0 ;Move to start position
G1 X10.1 Y200.0 Z0.28 F1500.0 E15 ;Draw the first line
G1 X10.4 Y200.0 Z0.28 F5000.0 ;Move to side a little
G1 X10.4 Y20 Z0.28 F1500.0 E30 ;Draw the second line
G92 E0 ;Reset Extruder
G1 Z2.0 F3000 ;Move Z Axis up

G92 E0
G92 E0
G1 F3600 E-5
;LAYER_COUNT:125
;LAYER:0
M107
G0 F6000 X133.801 Y112.446 Z0.2
;TYPE:SKIRT
G1 F3600 E0
G1 F1200 X134.164 Y112.015 E0.01874
G1 X134.926 Y111.229 E0.05515
G1 X135.577 Y110.646 E0.08422
G1 X136.192 Y110.15 E0.1105
G1 X136.587 Y109.881 E0.12639
G1 X137.592 Y109.24 E0.16604
G1 X138.278 Y108.849 E0.1923
G1 X138.699 Y108.653 E0.20775
G1 X139.922 Y108.126 E0.25204
G1 X141.026 Y107.745 E0.29088
G1 X142.411 Y107.381 E0.33851
G1 X143.149 Y107.225 E0.3636
G1 X143.613 Y107.15 E0.37924
G1 X144.362 Y107.066 E0.4043
G1 X145.807 Y106.974 E0.45246
G1 X146.978 Y106.987 E0.49141
G1 X148.337 Y107.105 E0.53678
G1 X149.119 Y107.213 E0.56304
G1 X149.52 Y107.3 E0.57669
G1 X150.613 Y107.568 E0.61412
G1 X151.737 Y107.937 E0.65346
G1 X152.578 Y108.285 E0.68374
G1 X153.292 Y108.623 E0.71001
G1 X153.686 Y108.85 E0.72513
G1 X154.347 Y109.257 E0.75095
G1 X154.895 Y109.628 E0.77296
G1 X187.167 Y133.496 E2.108
G1 X187.554 Y133.801 E2.12439
G1 X187.985 Y134.164 E2.14313
G1 X188.771 Y134.926 E2.17954
G1 X189.354 Y135.577 E2.20861
G1 X189.85 Y136.192 E2.23489
G1 X190.119 Y136.587 E2.25078
G1 X190.76 Y137.592 E2.29043
G1 X191.151 Y138.278 E2.31669
G1 X191.345 Y138.695 E2.33199
G1 X191.872 Y139.916 E2.37622
G1 X192.256 Y141.027 E2.41532
G1 X192.62 Y142.414 E2.46301
G1 X192.774 Y143.144 E2.48783
G1 X192.849 Y143.606 E2.50339
G1 X192.934 Y144.361 E2.52866
G1 X193.026 Y145.807 E2.57685
G1 X193.013 Y146.976 E2.61574
G1 X192.895 Y148.336 E2.66114
G1 X192.787 Y149.118 E2.6874
G1 X192.7 Y149.516 E2.70095
G1 X192.433 Y150.607 E2.73831
G1 X192.207 Y151.364 E2.76458
G1 X192.064 Y151.737 E2.77787
G1 X191.715 Y152.58 E2.80821
G1 X191.376 Y153.293 E2.83447
G1 X191.15 Y153.686 E2.84955
G1 X190.743 Y154.347 E2.87537
G1 X190.372 Y154.895 E2.89738
G1 X166.504 Y187.167 E4.23242
G1 X166.199 Y187.554 E4.24881
G1 X165.836 Y187.985 E4.26755
G1 X165.074 Y188.771 E4.30396
G1 X164.423 Y189.354 E4.33303
G1 X163.808 Y189.85 E4.3593
G1 X163.413 Y190.119 E4.3752
G1 X162.408 Y190.76 E4.41485
G1 X161.722 Y191.151 E4.44111
G1 X161.301 Y191.347 E4.45655
G1 X160.078 Y191.874 E4.50085
G1 X158.974 Y192.255 E4.53969
G1 X157.589 Y192.619 E4.58732
G1 X156.851 Y192.775 E4.61241
G1 X156.387 Y192.85 E4.62804
G1 X155.638 Y192.934 E4.65311
G1 X154.193 Y193.026 E4.70127
G1 X153.022 Y193.013 E4.74022
G1 X151.663 Y192.895 E4.78559
G1 X150.881 Y192.787 E4.81185
G1 X150.48 Y192.7 E4.82549
G1 X149.387 Y192.432 E4.86292
G1 X148.631 Y192.205 E4.88918
G1 X148.261 Y192.063 E4.90236
G1 X147.418 Y191.714 E4.9327
G1 X146.705 Y191.375 E4.95896
G1 X146.311 Y191.148 E4.97409
G1 X145.652 Y190.742 E4.99983
G1 X145.105 Y190.372 E5.0218
G1 X112.832 Y166.503 E6.35688
G1 X112.444 Y166.197 E6.37332
G1 X112.012 Y165.833 E6.3921
G1 X111.227 Y165.071 E6.42849
G1 X110.646 Y164.422 E6.45746
G1 X110.149 Y163.807 E6.48376
G1 X109.881 Y163.413 E6.49961
G1 X109.24 Y162.408 E6.53926
G1 X108.849 Y161.722 E6.56552
G1 X108.654 Y161.304 E6.58086
G1 X108.126 Y160.08 E6.6252
G1 X107.743 Y158.969 E6.66428
G1 X107.38 Y157.585 E6.71187
G1 X107.225 Y156.851 E6.73682
G1 X107.15 Y156.387 E6.75246
G1 X107.066 Y155.638 E6.77753
G1 X106.974 Y154.194 E6.82565
G1 X106.987 Y153.024 E6.86457
G1 X107.105 Y151.664 E6.90997
G1 X107.213 Y150.882 E6.93623
G1 X107.3 Y150.484 E6.94978
G1 X107.567 Y149.393 E6.98714
G1 X107.793 Y148.636 E7.01341
G1 X107.936 Y148.263 E7.0267
G1 X108.285 Y147.42 E7.05704
G1 X108.624 Y146.707 E7.0833
G1 X108.85 Y146.314 E7.09838
G1 X109.257 Y145.653 E7.1242
G1 X109.628 Y145.105 E7.14621
G1 X133.496 Y112.833 E8.48125
G1 X133.801 Y112.446 E8.49764
G0 F6000 X134.107 Y112.704
G1 F1200 X134.47 Y112.273 E8.51638
G1 X135.193 Y111.527 E8.55093
G1 X135.844 Y110.944 E8.58
G1 X136.443 Y110.462 E8.60557
G1 X136.802 Y110.218 E8.62001
G1 X137.807 Y109.577 E8.65965
G1 X138.476 Y109.198 E8.68523
G1 X138.858 Y109.02 E8.69924
G1 X140.081 Y108.493 E8.74354
G1 X141.128 Y108.132 E8.78037
G1 X142.513 Y107.768 E8.828
G1 X143.213 Y107.62 E8.8518
G1 X143.677 Y107.545 E8.86743
G1 X144.388 Y107.465 E8.89123
G1 X145.833 Y107.373 E8.93939
G1 X146.943 Y107.386 E8.97631
G1 X148.302 Y107.504 E9.02168
G1 X149.424 Y107.689 E9.0595
G1 X150.517 Y107.957 E9.09693
G1 X151.584 Y108.306 E9.13427
G1 X152.425 Y108.654 E9.16454
G1 X153.12 Y108.985 E9.19015
G1 X153.476 Y109.191 E9.20383
G1 X154.137 Y109.598 E9.22964
G1 X154.657 Y109.949 E9.25051
G1 X186.929 Y133.817 E10.58555
G1 X187.296 Y134.107 E10.60111
G1 X187.727 Y134.47 E10.61985
G1 X188.473 Y135.193 E10.6544
G1 X189.056 Y135.844 E10.68347
G1 X189.538 Y136.443 E10.70904
G1 X189.782 Y136.802 E10.72348
G1 X190.423 Y137.807 E10.76312
G1 X190.802 Y138.476 E10.7887
G1 X190.978 Y138.854 E10.80256
G1 X191.505 Y140.075 E10.8468
G1 X191.869 Y141.129 E10.88388
G1 X192.233 Y142.516 E10.93158
G1 X192.379 Y143.208 E10.9551
G1 X192.454 Y143.67 E10.97067
G1 X192.535 Y144.386 E10.99463
G1 X192.627 Y145.832 E11.04283
G1 X192.614 Y146.942 E11.07975
G1 X192.496 Y148.302 E11.12515
G1 X192.312 Y149.421 E11.16287
G1 X192.045 Y150.512 E11.20023
G1 X191.694 Y151.584 E11.23774
G1 X191.345 Y152.427 E11.26809
G1 X191.014 Y153.121 E11.29366
G1 X190.809 Y153.476 E11.3073
G1 X190.402 Y154.137 E11.33312
G1 X190.051 Y154.657 E11.35398
G1 X166.183 Y186.929 E12.68902
G1 X165.893 Y187.296 E12.70458
G1 X165.53 Y187.727 E12.72332
G1 X164.807 Y188.473 E12.75787
G1 X164.156 Y189.056 E12.78694
G1 X163.557 Y189.538 E12.81251
G1 X163.198 Y189.782 E12.82695
G1 X162.193 Y190.423 E12.8666
G1 X161.524 Y190.802 E12.89217
G1 X161.142 Y190.98 E12.90619
G1 X159.919 Y191.507 E12.95048
G1 X158.872 Y191.868 E12.98731
G1 X157.487 Y192.232 E13.03494
G1 X156.787 Y192.38 E13.05874
G1 X156.323 Y192.455 E13.07437
G1 X155.612 Y192.535 E13.09817
G1 X154.167 Y192.627 E13.14633
G1 X153.057 Y192.614 E13.18325
G1 X151.698 Y192.496 E13.22862
G1 X150.576 Y192.311 E13.26644
G1 X149.483 Y192.043 E13.30387
G1 X148.414 Y191.693 E13.34129
G1 X147.571 Y191.344 E13.37163
G1 X146.877 Y191.013 E13.3972
G1 X146.52 Y190.807 E13.41091
G1 X145.861 Y190.401 E13.43666
G1 X145.343 Y190.051 E13.45745
G1 X113.07 Y166.182 E14.79254
G1 X112.702 Y165.891 E14.80814
G1 X112.27 Y165.527 E14.82693
G1 X111.525 Y164.804 E14.86146
G1 X110.944 Y164.155 E14.89043
G1 X110.461 Y163.556 E14.91602
G1 X110.218 Y163.198 E14.93041
G1 X109.577 Y162.193 E14.97006
G1 X109.198 Y161.524 E14.99563
G1 X109.021 Y161.145 E15.00955
G1 X108.493 Y159.921 E15.05388
G1 X108.13 Y158.867 E15.09096
G1 X107.767 Y157.483 E15.13855
G1 X107.62 Y156.787 E15.16221
G1 X107.545 Y156.323 E15.17784
G1 X107.465 Y155.613 E15.20161
G1 X107.373 Y154.169 E15.24973
G1 X107.386 Y153.058 E15.28669
G1 X107.504 Y151.698 E15.33209
G1 X107.688 Y150.579 E15.36981
G1 X107.955 Y149.488 E15.40716
G1 X108.306 Y148.416 E15.44468
G1 X108.655 Y147.573 E15.47503
G1 X108.986 Y146.879 E15.5006
G1 X109.191 Y146.524 E15.51424
G1 X109.598 Y145.863 E15.54005
G1 X109.949 Y145.343 E15.56092
G1 X133.817 Y113.071 E16.89596
G1 X134.107 Y112.704 E16.91152
G0 F6000 X134.413 Y112.962
G1 F1200 X134.776 Y112.531 E16.93026
G1 X135.46 Y111.825 E16.96295
G1 X136.111 Y111.242 E16.99202
G1 X136.694 Y110.774 E17.01689
G1 X137.017 Y110.555 E17.02986
G1 X138.022 Y109.914 E17.06951
G1 X138.673 Y109.546 E17.09438
G1 X139.016 Y109.387 E17.10696
G1 X140.239 Y108.86 E17.15125
G1 X141.23 Y108.519 E17.18611
G1 X142.615 Y108.155 E17.23374
G1 X143.277 Y108.015 E17.25624
G1 X143.741 Y107.94 E17.27188
G1 X144.413 Y107.864 E17.29437
G1 X145.858 Y107.772 E17.34253
G1 X146.909 Y107.784 E17.37749
G1 X148.268 Y107.902 E17.42286
G1 X149.329 Y108.077 E17.45862
G1 X150.422 Y108.345 E17.49605
G1 X151.431 Y108.676 E17.53137
G1 X152.272 Y109.024 E17.56164
G1 X153.266 Y109.531 E17.59876
G1 X153.927 Y109.938 E17.62458
G1 X154.419 Y110.271 E17.64434
G1 X186.691 Y134.139 E18.97937
G1 X187.038 Y134.413 E18.99408
G1 X187.469 Y134.776 E19.01282
G1 X188.175 Y135.46 E19.04552
G1 X188.758 Y136.111 E19.07458
G1 X189.226 Y136.694 E19.09945
G1 X189.445 Y137.017 E19.11243
G1 X190.086 Y138.022 E19.15207
G1 X190.611 Y139.012 E19.18934
G1 X191.138 Y140.233 E19.23358
G1 X191.482 Y141.23 E19.26866
G1 X191.846 Y142.617 E19.31635
G1 X191.985 Y143.272 E19.33862
G1 X192.06 Y143.734 E19.35419
G1 X192.136 Y144.412 E19.37688
G1 X192.228 Y145.858 E19.42507
G1 X192.216 Y146.907 E19.45996
G1 X192.098 Y148.267 E19.50537
G1 X191.923 Y149.326 E19.54107
G1 X191.656 Y150.417 E19.57842
G1 X191.325 Y151.431 E19.6139
G1 X190.976 Y152.274 E19.64425
G1 X190.469 Y153.266 E19.6813
G1 X190.062 Y153.927 E19.70712
G1 X189.729 Y154.419 E19.72688
G1 X165.861 Y186.691 E21.06192
G1 X165.587 Y187.038 E21.07662
G1 X165.224 Y187.469 E21.09536
G1 X164.54 Y188.175 E21.12806
G1 X163.889 Y188.758 E21.15713
G1 X163.306 Y189.226 E21.18199
G1 X162.983 Y189.445 E21.19497
G1 X161.978 Y190.086 E21.23462
G1 X161.327 Y190.454 E21.25949
G1 X160.984 Y190.613 E21.27206
G1 X159.761 Y191.14 E21.31636
G1 X158.77 Y191.481 E21.35121
G1 X157.385 Y191.845 E21.39884
G1 X156.723 Y191.985 E21.42135
G1 X156.259 Y192.06 E21.43698
G1 X155.587 Y192.136 E21.45948
G1 X154.142 Y192.228 E21.50763
G1 X153.091 Y192.216 E21.54259
G1 X151.732 Y192.098 E21.58796
G1 X150.671 Y191.923 E21.62373
G1 X149.578 Y191.655 E21.66116
G1 X148.567 Y191.324 E21.69654
G1 X147.724 Y190.975 E21.72689
G1 X146.73 Y190.467 E21.76402
G1 X146.071 Y190.061 E21.78976
G1 X145.581 Y189.729 E21.80945
G1 X113.308 Y165.86 E23.14453
G1 X112.96 Y165.585 E23.15928
G1 X112.528 Y165.221 E23.17807
G1 X111.823 Y164.537 E23.21074
G1 X111.242 Y163.888 E23.23971
G1 X110.773 Y163.305 E23.2646
G1 X110.555 Y162.983 E23.27753
G1 X109.914 Y161.978 E23.31718
G1 X109.546 Y161.327 E23.34205
G1 X109.389 Y160.987 E23.35451
G1 X108.861 Y159.763 E23.39885
G1 X108.517 Y158.766 E23.43392
G1 X108.154 Y157.382 E23.48151
G1 X108.015 Y156.723 E23.50391
G1 X107.94 Y156.259 E23.51955
G1 X107.864 Y155.587 E23.54204
G1 X107.772 Y154.143 E23.59017
G1 X107.784 Y153.093 E23.62509
G1 X107.902 Y151.733 E23.67049
G1 X108.077 Y150.674 E23.70619
G1 X108.344 Y149.583 E23.74355
G1 X108.675 Y148.569 E23.77903
G1 X109.024 Y147.726 E23.80938
G1 X109.531 Y146.734 E23.84643
G1 X109.938 Y146.073 E23.87225
G1 X110.271 Y145.581 E23.89201
G1 X134.139 Y113.309 E25.22705
G1 X134.413 Y112.962 E25.24175
G0 F6000 X134.719 Y113.219
G1 F1200 X135.082 Y112.788 E25.26049
G1 X135.727 Y112.123 E25.29131
G1 X136.378 Y111.54 E25.32037
G1 X137.232 Y110.892 E25.35603
G1 X138.237 Y110.251 E25.39567
G1 X139.174 Y109.755 E25.43094
G1 X140.397 Y109.228 E25.47523
G1 X141.331 Y108.906 E25.50809
G1 X142.716 Y108.542 E25.55572
G1 X143.341 Y108.41 E25.57696
G1 X143.805 Y108.335 E25.5926
G1 X144.439 Y108.263 E25.61382
G1 X145.884 Y108.171 E25.66198
G1 X146.874 Y108.183 E25.69491
G1 X148.233 Y108.301 E25.74028
G1 X149.234 Y108.466 E25.77402
G1 X150.327 Y108.734 E25.81145
G1 X151.279 Y109.045 E25.84476
G1 X152.12 Y109.393 E25.87503
G1 X153.056 Y109.872 E25.91
G1 X153.717 Y110.279 E25.93582
G1 X154.182 Y110.593 E25.95448
G1 X186.454 Y134.461 E27.28952
G1 X186.781 Y134.719 E27.30338
G1 X187.212 Y135.082 E27.32212
G1 X187.877 Y135.727 E27.35293
G1 X188.46 Y136.378 E27.382
G1 X189.108 Y137.232 E27.41765
G1 X189.749 Y138.237 E27.4573
G1 X190.244 Y139.171 E27.49246
G1 X190.771 Y140.392 E27.53669
G1 X191.095 Y141.332 E27.56976
G1 X191.459 Y142.719 E27.61745
G1 X191.59 Y143.336 E27.63843
G1 X191.665 Y143.798 E27.654
G1 X191.737 Y144.437 E27.67539
G1 X191.829 Y145.883 E27.72358
G1 X191.817 Y146.873 E27.75651
G1 X191.699 Y148.233 E27.80191
G1 X191.535 Y149.231 E27.83555
G1 X191.268 Y150.322 E27.87291
G1 X190.955 Y151.278 E27.90637
G1 X190.606 Y152.121 E27.93671
G1 X190.128 Y153.056 E27.97164
G1 X189.721 Y153.717 E27.99746
G1 X189.407 Y154.182 E28.01612
G1 X165.539 Y186.454 E29.35116
G1 X165.281 Y186.781 E29.36501
G1 X164.918 Y187.212 E29.38375
G1 X164.273 Y187.877 E29.41457
G1 X163.622 Y188.46 E29.44363
G1 X162.768 Y189.108 E29.47929
G1 X161.763 Y189.749 E29.51893
G1 X160.826 Y190.245 E29.5542
G1 X159.603 Y190.772 E29.59849
G1 X158.669 Y191.094 E29.63135
G1 X157.284 Y191.458 E29.67898
G1 X156.659 Y191.59 E29.70022
G1 X156.195 Y191.665 E29.71586
G1 X155.561 Y191.737 E29.73708
G1 X154.116 Y191.829 E29.78524
G1 X153.126 Y191.817 E29.81817
G1 X151.767 Y191.699 E29.86354
G1 X150.766 Y191.534 E29.89728
G1 X149.673 Y191.266 E29.93471
G1 X148.72 Y190.954 E29.96806
G1 X147.877 Y190.605 E29.99841
G1 X146.94 Y190.126 E30.03341
G1 X146.281 Y189.72 E30.05915
G1 X145.818 Y189.407 E30.07774
G1 X113.545 Y165.538 E31.41283
G1 X113.217 Y165.279 E31.42673
G1 X112.785 Y164.915 E31.44552
G1 X112.121 Y164.27 E31.47631
G1 X111.54 Y163.621 E31.50528
G1 X110.892 Y162.768 E31.54091
G1 X110.251 Y161.763 E31.58055
G1 X109.756 Y160.828 E31.61574
G1 X109.228 Y159.604 E31.66008
G1 X108.904 Y158.664 E31.69315
G1 X108.541 Y157.28 E31.74074
G1 X108.41 Y156.659 E31.76184
G1 X108.335 Y156.195 E31.77748
G1 X108.263 Y155.562 E31.79867
G1 X108.171 Y154.118 E31.84679
G1 X108.183 Y153.127 E31.87976
G1 X108.301 Y151.767 E31.92516
G1 X108.465 Y150.769 E31.9588
G1 X108.732 Y149.678 E31.99616
G1 X109.045 Y148.722 E32.02961
G1 X109.394 Y147.879 E32.05996
G1 X109.872 Y146.944 E32.09489
G1 X110.279 Y146.283 E32.1207
G1 X110.593 Y145.818 E32.13937
G1 X134.461 Y113.546 E33.4744
G1 X134.719 Y113.219 E33.48826
G0 F6000 X135.025 Y113.477
G1 F1200 X135.388 Y113.046 E33.507
G1 X135.994 Y112.421 E33.53595
G1 X136.645 Y111.838 E33.56502
G1 X137.447 Y111.23 E33.59849
G1 X138.452 Y110.589 E33.63814
G1 X139.332 Y110.122 E33.67128
G1 X140.555 Y109.595 E33.71557
G1 X141.433 Y109.293 E33.74645
G1 X142.818 Y108.929 E33.79408
G1 X143.405 Y108.804 E33.81404
G1 X143.869 Y108.729 E33.82967
G1 X144.464 Y108.663 E33.84959
G1 X145.909 Y108.571 E33.89774
G1 X146.839 Y108.581 E33.92868
G1 X148.198 Y108.699 E33.97405
G1 X149.138 Y108.854 E34.00573
G1 X150.231 Y109.122 E34.04317
G1 X151.126 Y109.415 E34.07449
G1 X151.967 Y109.763 E34.10476
G1 X152.847 Y110.213 E34.13763
G1 X153.508 Y110.62 E34.16345
G1 X153.944 Y110.914 E34.18094
G1 X186.216 Y134.782 E35.51598
G1 X186.523 Y135.025 E35.529
G1 X186.954 Y135.388 E35.54774
G1 X187.579 Y135.994 E35.5767
G1 X188.162 Y136.645 E35.60577
G1 X188.77 Y137.447 E35.63924
G1 X189.411 Y138.452 E35.67889
G1 X189.876 Y139.329 E35.7119
G1 X190.403 Y140.55 E35.75613
G1 X190.708 Y141.433 E35.7872
G1 X191.072 Y142.82 E35.8349
G1 X191.195 Y143.401 E35.85465
G1 X191.27 Y143.863 E35.87022
G1 X191.337 Y144.462 E35.89026
G1 X191.429 Y145.908 E35.93846
G1 X191.419 Y146.838 E35.96939
G1 X191.301 Y148.198 E36.01479
G1 X191.146 Y149.136 E36.04641
G1 X190.879 Y150.227 E36.08377
G1 X190.585 Y151.125 E36.1152
G1 X190.236 Y151.968 E36.14555
G1 X189.787 Y152.847 E36.17838
G1 X189.38 Y153.508 E36.20419
G1 X189.086 Y153.944 E36.22168
G1 X165.218 Y186.216 E37.55672
G1 X164.975 Y186.523 E37.56974
G1 X164.612 Y186.954 E37.58849
G1 X164.006 Y187.579 E37.61744
G1 X163.355 Y188.162 E37.64651
G1 X162.553 Y188.77 E37.67998
G1 X161.548 Y189.411 E37.71963
G1 X160.668 Y189.878 E37.75276
G1 X159.445 Y190.405 E37.79706
G1 X158.567 Y190.707 E37.82794
G1 X157.182 Y191.071 E37.87557
G1 X156.595 Y191.196 E37.89553
G1 X156.131 Y191.271 E37.91116
G1 X155.536 Y191.337 E37.93107
G1 X154.091 Y191.429 E37.97923
G1 X153.161 Y191.419 E38.01016
G1 X151.802 Y191.301 E38.05553
G1 X150.862 Y191.146 E38.08722
G1 X149.769 Y190.878 E38.12465
G1 X148.873 Y190.584 E38.15602
G1 X148.03 Y190.235 E38.18636
G1 X147.15 Y189.786 E38.21922
G1 X146.491 Y189.38 E38.24496
G1 X146.056 Y189.086 E38.26243
G1 X113.783 Y165.217 E39.59751
G1 X113.475 Y164.973 E39.61058
G1 X113.043 Y164.609 E39.62937
G1 X112.419 Y164.003 E39.6583
G1 X111.838 Y163.354 E39.68727
